assets/Jar/Flat/jar_flat.svg

<svg width="32" height="32" viewBox="0 0 32 32" fill="none" xmlns="http://www.w3.org/2000/svg">
<path d="M22 5.00001L16 3.85864L10 5.00001V6.00001L16 7.39407L22 6.00001V5.00001Z" fill="#9B9B9B"/>
<path d="M7.89474 6C6.29602 6 5 7.22588 5 8.73809L5 27.2619C5 28.7741 6.29602 30 7.89474 30H24.1053C25.704 30 27 28.7741 27 27.2619V8.73809C27 7.22588 25.704 6 24.1053 6H7.89474Z" fill="#AEDDFF"/>
<path d="M8 3.5C8 2.67157 8.67157 2 9.5 2H22.5C23.3284 2 24 2.67157 24 3.5V3.5C24 4.32843 23.3284 5 22.5 5H9.5C8.67157 5 8 4.32843 8 3.5V3.5Z" fill="#BEBEBE"/>
<rect x="22" y="8" width="2" height="20" rx="1" fill="white"/>
<path d="M9.99881 14C9.44718 14 9 14.4477 9 15V20C9 20.5523 9.44718 21 9.99881 21H22.0012C22.5528 21 23 20.5523 23 20V15C23 14.4477 22.5528 14 22.0012 14H9.99881Z" fill="#9B9B9B"/>
</svg>

<svg xmlns="http://www.w3.org/2000/svg" width="32" height="32" fill="none"><path fill="#9B9B9B" d="m22 5-6-1.141L10 5v1l6 1.394L22 6V5Z"/><path fill="#AEDDFF" d="M7.895 6C6.296 6 5 7.226 5 8.738v18.524C5 28.774 6.296 30 7.895 30h16.21C25.704 30 27 28.774 27 27.262V8.738C27 7.226 25.704 6 24.105 6H7.895Z"/><path fill="#BEBEBE" d="M8 3.5A1.5 1.5 0 0 1 9.5 2h13a1.5 1.5 0 0 1 0 3h-13A1.5 1.5 0 0 1 8 3.5Z"/><rect width="2" height="20" x="22" y="8" fill="#fff" rx="1"/><path fill="#9B9B9B" d="M9.999 14A1 1 0 0 0 9 15v5a1 1 0 0 0 .999 1H22A1 1 0 0 0 23 20v-5a1 1 0 0 0-.999-1H10Z"/></svg>
